packages/calcite-ui-icons/icons/range-domain-24.svg

<?xml version="1.0" encoding="UTF-8"?><svg id="icons" xmlns="http://www.w3.org/2000/svg" viewBox="0 0 24 24"><defs><style>.cls-1{fill:none;}</style></defs><path d="M10,9l-3.50482,3.5,3.48804,3.5h-1.41406l-3.48804-3.5,3.50482-3.5h1.41406ZM15.41406,9l3.50482,3.5-3.48804,3.5h-1.41406s3.48804-3.5,3.48804-3.5l-3.50482-3.5h1.41406ZM5,21h-2.5c-.27588,0-.5-.22461-.5-.5V4.5c0-.27539.22412-.5.5-.5h2.5v-1h-2.5c-.82843,0-1.5.67157-1.5,1.5v16c0,.82843.67157,1.5,1.5,1.5h2.5v-1ZM21.5,3h-2.5v1h2.5c.27588,0,.5.22461.5.5v16c0,.27539-.22412.5-.5.5h-2.5v1h2.5c.82843,0,1.5-.67157,1.5-1.5V4.5c0-.82843-.67157-1.5-1.5-1.5Z"/><rect class="cls-1" width="24" height="24"/></svg>

<svg xmlns="http://www.w3.org/2000/svg" viewBox="0 0 24 24"><path d="m10 9-3.505 3.5L9.983 16H8.57l-3.488-3.5L8.586 9zm5.414 0 3.505 3.5L15.43 16h-1.414l3.488-3.5L14 9zM5 21H2.5a.5.5 0 0 1-.5-.5v-16a.5.5 0 0 1 .5-.5H5V3H2.5A1.5 1.5 0 0 0 1 4.5v16A1.5 1.5 0 0 0 2.5 22H5zM21.5 3H19v1h2.5a.5.5 0 0 1 .5.5v16a.5.5 0 0 1-.5.5H19v1h2.5a1.5 1.5 0 0 0 1.5-1.5v-16A1.5 1.5 0 0 0 21.5 3"/><path d="M0 0h24v24H0z" style="fill:none"/></svg>
